T: A Fig For A Kiss
M: 9/8
L: 1/8
K: Edor
| g2 e e2 g B2 g | f2 d d2 f A2 a || g3 e2 g B2 g | f3 d2 f A2 a | g2 e fed e3 | d2 B AGF E3 ||
